X: 08011
T: Major Mole
R: strathspey
B: Kerr's
B: RSCDS 8-1
N: Alternate tune for Tullochgorm
M: C
L: 1/8
%--------------------
K: Ador
|: "Am"A<e e>d c>d B>c | A<e e>d c2 "(G)"B<c | "Am"A<e e>f g>f g>e | "G"d>B G>B "Em"e>d c>B :|
|: "Am"A<E E2  A>E c>E | A<E E>E c2 "(G)"B<c | "Am"A<E E>E e>f g>e | "G"d>B G>B "Em"e>d c>B :| \
"Am"A4 |]
%%center Book08/08011-Major_Mole-1.abc

%%sep 1 1 500
%%sep 1 1 500

